assets/logos/open-finance.svg

<svg width="80" height="80" viewBox="0 0 80 80" fill="none" xmlns="http://www.w3.org/2000/svg">
<path d="M70.6869 40.5382C70.6869 41.332 70.8579 41.9398 71.2022 42.3627C71.5454 42.7856 72.047 42.997 72.7079 42.997C73.0766 42.997 73.388 42.9386 73.6409 42.8228C73.8938 42.707 74.1541 42.5157 74.4197 42.25L74.9085 42.6358C74.7545 42.7898 74.5972 42.9269 74.4389 43.0449C74.2795 43.1639 74.1127 43.2627 73.9373 43.3424C73.7609 43.4221 73.5707 43.4805 73.3646 43.5188C73.1585 43.556 72.9268 43.5751 72.6697 43.5751C71.8111 43.5751 71.1576 43.3052 70.7071 42.7643C70.2565 42.2235 70.0312 41.434 70.0312 40.3958C70.0312 39.3917 70.2501 38.6107 70.6879 38.0528C71.1257 37.495 71.7346 37.2166 72.5156 37.2166C73.2966 37.2166 73.9055 37.4822 74.3432 38.0146C74.781 38.5469 74.9999 39.2886 74.9999 40.2417V40.5382H70.6869ZM74.3167 39.6308C74.3082 39.5234 74.2954 39.4289 74.2784 39.347C74.2614 39.2652 74.2402 39.1845 74.2136 39.1026C74.1881 39.0208 74.1573 38.9337 74.1233 38.8391C73.9862 38.5129 73.7737 38.2579 73.4857 38.073C73.1978 37.8881 72.8747 37.7967 72.5135 37.7967C72.1532 37.7967 71.8292 37.8892 71.5412 38.073C71.2532 38.2579 71.0407 38.5129 70.9036 38.8391C70.8601 38.9337 70.8282 39.0219 70.8069 39.1026C70.7857 39.1845 70.7666 39.2663 70.7485 39.347C70.7315 39.4289 70.7187 39.5234 70.7102 39.6308C70.7017 39.7381 70.6932 39.8645 70.6847 40.0101H74.3411C74.3337 39.8645 74.3252 39.7381 74.3167 39.6308Z" fill="#3F3F3F"/>
<path d="M42.1043 37.8739V43.5757H41.4498V37.8739H40.6018V37.3861H41.4498V36.0505C41.4498 35.5797 41.5762 35.1919 41.8291 34.888C42.082 34.5841 42.4518 34.4321 42.9395 34.4321H44.5004V35.0102H43.0553C42.7302 35.0102 42.49 35.1005 42.336 35.2801C42.1819 35.4597 42.1043 35.7126 42.1043 36.0377V37.3861H42.9863V37.8739H42.1043Z" fill="#3F3F3F"/>
<path d="M45.173 37.386H44.5184V43.5756H45.173V37.386Z" fill="#3F3F3F"/>
<path d="M56.8775 42.955C56.5619 43.243 56.2591 43.3439 55.9392 43.4502C55.6024 43.5458 55.2454 43.5639 54.8086 43.5639C54.3464 43.5639 53.9756 43.5214 53.6982 43.4353C53.4198 43.3503 53.1829 43.2037 52.9852 42.9986C52.8397 42.853 52.7281 42.6734 52.6516 42.4588C52.574 42.2452 52.5358 42.0221 52.5358 41.7904C52.5358 41.2251 52.726 40.7873 53.1074 40.4739C53.4878 40.1615 54.017 40.0053 54.6939 40.0053H56.6969V39.3114C56.6969 38.8152 56.564 38.438 56.2984 38.1808C56.0328 37.9237 55.5833 37.7951 54.95 37.7951C54.5132 37.7951 54.169 37.8546 53.9161 37.9747C53.6632 38.0947 53.439 38.2956 53.2424 38.5782L52.7674 38.167C53.0331 37.7993 53.337 37.5486 53.6791 37.4157C54.0213 37.2829 54.4452 37.217 54.95 37.217C55.7714 37.217 56.377 37.3924 56.767 37.7441C57.1559 38.0947 57.3514 38.5963 57.3514 39.2466V41.783C57.3249 42.1825 57.2685 42.5353 56.8775 42.955ZM56.6958 40.5334H54.7693C53.7163 40.5334 53.1893 40.9489 53.1893 41.7787C53.1893 42.19 53.3178 42.4939 53.575 42.6904C53.8321 42.887 54.2423 42.9858 54.8076 42.9858C55.0902 42.9858 55.3612 42.9603 55.6226 42.9093C55.884 42.8583 56.1252 42.7255 56.3483 42.5109C56.58 42.2973 56.6947 41.9031 56.6947 41.3293V40.5334H56.6958Z" fill="#3F3F3F"/>
<path d="M68.8221 43.0688C68.668 43.1931 68.5118 43.2919 68.3535 43.3642C68.1952 43.4375 68.0283 43.4885 67.853 43.5183C67.6777 43.548 67.4822 43.5629 67.2686 43.5629C66.8489 43.5629 66.4706 43.4896 66.1316 43.3451C65.7937 43.1995 65.5068 42.9902 65.2709 42.716C65.035 42.4419 64.8554 42.1082 64.7311 41.714C64.6068 41.3198 64.5452 40.8788 64.5452 40.3911C64.5452 39.9033 64.6068 39.4624 64.7311 39.0681C64.8554 38.675 65.035 38.3403 65.2709 38.0661C65.5068 37.792 65.7926 37.5826 66.1316 37.4371C66.4695 37.2915 66.8489 37.2192 67.2686 37.2192C67.4822 37.2192 67.6777 37.2341 67.853 37.2639C68.0283 37.2936 68.1952 37.3457 68.3535 37.4179C68.5118 37.4902 68.668 37.589 68.8221 37.7133C68.9762 37.8377 69.1387 37.9896 69.3098 38.1692L68.8603 38.5804C68.5947 38.2893 68.345 38.0863 68.1091 37.9705C67.8732 37.8547 67.5937 37.7973 67.2675 37.7973C66.9158 37.7973 66.6013 37.8664 66.3239 38.0024C66.0455 38.1394 65.8128 38.3445 65.6237 38.6187C65.4696 38.8418 65.3602 39.0873 65.2964 39.3572C65.2327 39.6271 65.1997 39.9713 65.1997 40.3911C65.1997 40.8108 65.2316 41.1551 65.2964 41.425C65.3612 41.6949 65.4696 41.9403 65.6237 42.1635C65.8118 42.4376 66.0455 42.6427 66.3239 42.7798C66.6023 42.9168 66.9169 42.9849 67.2675 42.9849C67.4301 42.9849 67.5799 42.9721 67.717 42.9466C67.8541 42.9211 67.9848 42.8786 68.1091 42.818C68.2334 42.7585 68.3577 42.6767 68.481 42.5736C68.6053 42.4706 68.7318 42.3473 68.8593 42.2007L69.3088 42.6119C69.1387 42.7936 68.9762 42.9455 68.8221 43.0688Z" fill="#3F3F3F"/>
<path d="M62.675 37.8994C62.2638 37.5052 61.7165 37.3086 61.0312 37.3086C60.9993 37.3086 60.9685 37.3118 60.9366 37.3128C60.9047 37.3118 60.8739 37.3086 60.842 37.3086C60.1577 37.3086 59.6094 37.5052 59.1982 37.8994C58.77 38.3106 58.5564 38.8844 58.5564 39.6197V43.5747H59.2109V39.7355C59.2109 39.1362 59.3565 38.6783 59.6477 38.3616C59.9388 38.045 60.3628 37.8866 60.9185 37.8866C60.9249 37.8866 60.9302 37.8877 60.9355 37.8877C60.9419 37.8877 60.9472 37.8866 60.9525 37.8866C61.5093 37.8866 61.9322 38.045 62.2234 38.3616C62.5145 38.6783 62.6601 39.1362 62.6601 39.7355V43.5747H63.3147V39.6197C63.3168 38.8844 63.1022 38.3106 62.675 37.8994Z" fill="#3F3F3F"/>
<path d="M50.6475 37.8994C50.2363 37.5052 49.6891 37.3086 49.0037 37.3086C48.9718 37.3086 48.941 37.3118 48.9091 37.3128C48.8773 37.3118 48.8464 37.3086 48.8146 37.3086C48.1303 37.3086 47.582 37.5052 47.1707 37.8994C46.7425 38.3106 46.5289 38.8844 46.5289 39.6197V43.5747H47.1835V39.7355C47.1835 39.1362 47.3291 38.6783 47.6202 38.3616C47.9114 38.045 48.3353 37.8866 48.8911 37.8866C48.8974 37.8866 48.9028 37.8877 48.9081 37.8877C48.9144 37.8877 48.9198 37.8866 48.9251 37.8866C49.4819 37.8866 49.9048 38.045 50.1959 38.3616C50.4871 38.6783 50.6327 39.1362 50.6327 39.7355V43.5747H51.2872V39.6197C51.2893 38.8844 51.0757 38.3106 50.6475 37.8994Z" fill="#3F3F3F"/>
<path d="M32.5974 36.6456H34.559V36.6435C35.0042 36.2684 35.4069 36.0081 35.7682 35.8614C36.1295 35.7148 36.4992 35.6415 36.8775 35.6415C37.6522 35.6415 38.3099 35.9124 38.8508 36.4533C39.3055 36.9134 39.5319 37.5935 39.5319 38.4945V43.6619H37.5916V40.2382C37.5916 39.3053 37.5501 38.6858 37.4662 38.3787C37.3823 38.0727 37.2367 37.8389 37.0284 37.6785C36.8201 37.518 36.5641 37.4383 36.258 37.4383C35.8617 37.4383 35.5206 37.5711 35.2369 37.8368C34.9521 38.1024 34.7555 38.4701 34.645 38.9387C34.5876 39.1831 34.559 39.7112 34.559 40.5251V43.6619H32.5974V36.6456Z" fill="#3F3F3F"/>
<path d="M16.5841 36.7272V36.7038C16.939 36.3489 17.3215 36.0832 17.7338 35.9058C18.1461 35.7283 18.586 35.6401 19.0557 35.6401C20.0757 35.6401 20.9428 36.0259 21.6569 36.7973C22.3709 37.5687 22.728 38.558 22.728 39.7651C22.728 40.9297 22.3593 41.903 21.6218 42.6862C20.8844 43.4693 20.0099 43.8614 18.9993 43.8614C18.5488 43.8614 18.1301 43.7817 17.7412 43.6202C17.3534 43.4597 16.9677 43.1973 16.5841 42.8328V45.5679H14.6364V36.7261H16.5841V36.7272ZM18.6466 37.4519C18.0281 37.4519 17.516 37.6622 17.109 38.0841C16.702 38.5059 16.498 39.0564 16.498 39.7375C16.498 40.4324 16.702 40.9935 17.109 41.4228C17.5043 41.8393 17.9984 42.0529 18.5924 42.0656C19.1311 42.0773 19.6635 41.885 20.0556 41.5163C20.5348 41.0657 20.7739 40.4749 20.7739 39.7449C20.7739 39.0744 20.573 38.5251 20.1703 38.0958C19.7676 37.6665 19.2597 37.4519 18.6466 37.4519Z" fill="#3F3F3F"/>
<path d="M9.46288 34.467C8.24269 34.5346 7.14588 35.0648 6.34494 35.8852L8.36939 37.9096C8.68177 37.6724 9.05564 37.512 9.46288 37.4565V34.467Z" fill="#4A7E94"/>
<path d="M5.92995 36.3718C5.34567 37.1585 5 38.133 5 39.1882C5 39.2774 5.00247 39.3659 5.00734 39.4539H7.46551C7.52104 39.0466 7.68143 38.6728 7.9186 38.3604L5.92995 36.3718Z" fill="#4A7E94"/>
<path d="M5.08616 40.0914C5.27736 41.08 5.77645 41.9587 6.47966 42.6239L7.91863 41.1849C7.68145 40.8725 7.52104 40.4987 7.46551 40.0914H5.08616Z" fill="#4A7E94"/>
<path d="M6.97348 43.0317C7.74925 43.5887 8.70058 43.9168 9.72852 43.9168C9.73767 43.9168 9.74681 43.9167 9.75594 43.9167C9.76451 43.9167 9.77308 43.9168 9.78165 43.9168C12.0704 43.9168 13.9258 42.0614 13.9258 39.7727C13.9258 37.5912 12.2402 35.8034 10.1004 35.6406V37.4565C11.2407 37.612 12.1194 38.5897 12.1194 39.7727C12.1194 41.0637 11.0727 42.1104 9.78165 42.1104C9.25107 42.1104 8.76177 41.9336 8.36944 41.6357L6.97348 43.0317Z" fill="#3F3F3F"/>
<path fill-rule="evenodd" clip-rule="evenodd" d="M31.4246 40.3115C31.4469 40.1376 31.4584 39.9602 31.4584 39.7802C31.4584 37.4915 29.603 35.6361 27.3143 35.6361C25.0255 35.6361 23.1702 37.4915 23.1702 39.7802C23.1702 42.0689 25.0255 43.9243 27.3143 43.9243C28.6891 43.9243 29.9075 43.2549 30.6614 42.2242L29.0752 41.3177C28.6467 41.8082 28.0166 42.1179 27.3143 42.1179C26.2059 42.1179 25.2778 41.3466 25.0372 40.3115H31.4246ZM27.3143 37.4425C26.4058 37.4425 25.6184 37.9607 25.2315 38.7176H29.3971C29.0101 37.9607 28.2227 37.4425 27.3143 37.4425Z" fill="#3F3F3F"/>
</svg>

<svg xmlns="http://www.w3.org/2000/svg" width="80" height="80" fill="none" viewBox="0 0 80 80"><path fill="#3f3f3f" d="M70.687 40.538q-.001 1.19.515 1.825.514.634 1.506.634.554 0 .933-.174.38-.174.779-.573l.489.386a4 4 0 0 1-.47.409 2.5 2.5 0 0 1-1.074.474 4 4 0 0 1-.695.056q-1.287 0-1.963-.81-.675-.812-.676-2.37 0-1.505.657-2.342t1.828-.836q1.17 0 1.827.798T75 40.242v.296zm3.63-.907a2.3 2.3 0 0 0-.103-.528 7 7 0 0 0-.09-.264 1.64 1.64 0 0 0-.638-.766 1.76 1.76 0 0 0-.973-.276q-.54 0-.972.276-.432.277-.637.766a1.6 1.6 0 0 0-.097.264q-.031.122-.058.244-.025.123-.039.284-.012.16-.025.38h3.656a14 14 0 0 0-.024-.38m-32.213-1.757v5.702h-.654v-5.702h-.848v-.488h.848V36.05q0-.705.38-1.162.378-.456 1.11-.456h1.56v.578h-1.445q-.488 0-.719.27t-.232.758v1.348h.882v.488zm3.069-.488h-.655v6.19h.655zm11.705 5.569c-.316.288-.619.389-.939.495-.337.096-.694.114-1.13.114q-.694 0-1.11-.129a1.64 1.64 0 0 1-.714-.436 1.4 1.4 0 0 1-.333-.54 2 2 0 0 1-.116-.669q0-.847.571-1.316.57-.468 1.587-.469h2.003v-.694q0-.744-.399-1.13-.398-.386-1.348-.386-.655 0-1.034.18t-.674.603l-.475-.411q.399-.552.912-.751.513-.2 1.271-.199 1.232 0 1.817.527.584.526.584 1.503v2.536c-.026.4-.082.752-.474 1.172m-.182-2.422h-1.927q-1.58 0-1.58 1.246 0 .617.386.911.385.296 1.233.296.422 0 .815-.077a1.44 1.44 0 0 0 .725-.398q.348-.321.347-1.182zm12.128 2.536q-.23.187-.469.295a2 2 0 0 1-.5.154q-.263.045-.584.045a2.9 2.9 0 0 1-1.137-.218 2.34 2.34 0 0 1-.861-.629 2.8 2.8 0 0 1-.54-1.002 4.4 4.4 0 0 1-.186-1.323q0-.732.186-1.323.186-.59.54-1.002.354-.41.86-.629a2.85 2.85 0 0 1 1.138-.218q.32 0 .584.045t.5.154q.238.109.47.295.23.188.487.456l-.45.411q-.398-.436-.75-.61a1.9 1.9 0 0 0-.843-.173q-.527.001-.943.205a1.8 1.8 0 0 0-.7.617 2.2 2.2 0 0 0-.328.738 4.6 4.6 0 0 0-.096 1.034q0 .63.096 1.034.097.404.328.739.282.41.7.616.417.205.944.205.243 0 .449-.038t.392-.129a1.8 1.8 0 0 0 .372-.244q.186-.154.378-.373l.45.41q-.255.274-.487.458M62.675 37.9q-.616-.592-1.644-.591l-.094.004-.095-.004q-1.027 0-1.644.59-.642.618-.642 1.72v3.956h.655v-3.84q0-.899.437-1.373.436-.475 1.27-.475h.034q.835 0 1.271.475.437.474.437 1.374v3.839h.655V39.62q.002-1.104-.64-1.72m-12.027 0q-.617-.592-1.644-.591l-.095.004-.094-.004q-1.028 0-1.644.59-.642.618-.642 1.72v3.956h.654v-3.84q0-.899.437-1.373.437-.475 1.271-.475h.034q.835 0 1.27.475.438.474.438 1.374v3.839h.654V39.62q.003-1.104-.64-1.72m-18.05-1.254h1.962v-.002q.667-.563 1.21-.783.54-.22 1.108-.22 1.163 0 1.974.812.681.69.68 2.041v5.168h-1.94v-3.424q.001-1.399-.125-1.86-.126-.459-.438-.7t-.77-.24q-.595 0-1.021.399-.427.398-.592 1.102-.086.365-.086 1.586v3.137h-1.962zm-16.013.081v-.023q.532-.532 1.15-.798a3.3 3.3 0 0 1 1.322-.266q1.53 0 2.6 1.157 1.072 1.158 1.072 2.968 0 1.747-1.106 2.921-1.107 1.175-2.623 1.175-.675 0-1.258-.24-.581-.242-1.157-.788v2.735h-1.948v-8.842zm2.063.725q-.928 0-1.538.632t-.611 1.653q0 1.042.611 1.686.593.624 1.483.643a2.07 2.07 0 0 0 1.464-.55q.718-.675.718-1.771 0-1.005-.604-1.65-.603-.642-1.523-.643"/><path fill="#4a7e94" d="M9.463 34.467a4.7 4.7 0 0 0-3.118 1.418l2.024 2.025a2.3 2.3 0 0 1 1.094-.453zM5.93 36.372a4.7 4.7 0 0 0-.923 3.082h2.459c.055-.407.215-.781.453-1.094zm-.844 3.719a4.72 4.72 0 0 0 1.394 2.533l1.439-1.44a2.3 2.3 0 0 1-.453-1.093z"/><path fill="#3f3f3f" d="M6.973 43.032a4.7 4.7 0 0 0 2.756.885h.053a4.144 4.144 0 0 0 .318-8.276v1.816a2.338 2.338 0 1 1-1.73 4.179z"/><path fill="#3f3f3f" fill-rule="evenodd" d="M31.425 40.312q.033-.261.033-.532a4.144 4.144 0 1 0-.797 2.444l-1.586-.906a2.339 2.339 0 0 1-4.038-1.006zm-4.11-2.87c-.91 0-1.697.519-2.084 1.276h4.166a2.34 2.34 0 0 0-2.083-1.276" clip-rule="evenodd"/></svg>
